X:1
T:Sambo's Right to be Kilt
M:6/8
L:1/8
K:G
 G| G2 B d2 e| c2 c A2 F| G2 B d2 d| d3 z2 B| c2 c A2 A| B2 B G2 B|\
 c2 A G2 F| G3 z2 G| G2 c c2 e| e2 d d2 G| G2 c c2 e| d2 z2 GG| GGg g2 e|\
 eddd-c B| A2 G A2 B/2B/2| d3 B2- A|G-E D G2 G/2G/2| G2 G z2 d/2d/2|\
A-G F AAA| A3 zB-c| dcB dcB|g-f edB-A| GED G2 G| G3 z2||

